X: 99
T: Limbrick's Lamentation
%R: waltz, air
B: "The Hibernian Muse" p.62 #2 - p.63 #1
F: http://imslp.org/wiki/The_Hibernian_Muse_%28Various%29
Z: 2015 John Chambers <jc:trillian.mit.edu>
P: No. XCIX.
M: 3/4
L: 1/8
K: G
% - - - - - - - - - - - - - - - - - - - - - - - - - - - - -
V: 1
GA |\
B2B2Bc | B3AG2 | g2A2AB | A4GA | B2(cB)(AG) | TE2D2BA | E2G2GA | G4 :|\
|: G2 |\
B2d2d2 | (d>ed>B)(A>B) | G2g2g2 | Tg4ed |
B2d2d2 | (d>ed>B)(A>B) | G2g2g2 | g4 de |\
(=f>g)(f>g()f>g) | (e>d)(e>g)(e>g) | d2(ed)(cB) | A4GA |\
B2(cB)(AG) | E2D2(BA) | E2G2GA | G4 |]
% - - - - - - - - - - - - - - - - - - - - - - - - - - - - -
V: 2 clef=bass middle=d
z2 |\
g2G2z2 | g2d2e2 | z2d2d2 | d4z2 |\
g2z2z2 | g2G2z2 | z2B2d2 | g2G2 :|
|: z2 |\
z2z2g2 | b2d'2d'2 | g2B2d2 | G4z2 |
g2b2g2 | d2d2D2 | G2B2d2 | g2G2z2 |\
g2b2g2 | c'2c2c'2 | b2c'bag | d2D2z2 |\
g2z2z2 | g2G2z2 | z2B2d2 | G4 |]

%%sep 2 1 500
%%sep 1 1 500

